dist/svg/download-object.svg

<!-- Generated by Trend Micro Style Portal -->
<svg version="1.1" xmlns="http://www.w3.org/2000/svg" width="16" height="16" viewBox="0 0 16 16">
  <title>download-object</title>
  <path fill="rgb(34,34,34)" d="M15.964 11.194l-4 4-4-4h3v-5h2v5zM10.094 5.141h4c0.017 0.001 0.037 0.002 0.057 0.002 0.522 0 0.945-0.423 0.945-0.945 0-0.020-0.001-0.040-0.002-0.060l0 0.003v-2c0.001-0.017 0.002-0.037 0.002-0.057 0-0.522-0.423-0.945-0.945-0.945-0.020 0-0.040 0.001-0.060 0.002l0.003-0h-4c-0.017-0.001-0.037-0.002-0.057-0.002-0.522 0-0.945 0.423-0.945 0.945 0 0.020 0.001 0.040 0.002 0.060l-0-0.003v2c-0.001 0.017-0.002 0.037-0.002 0.057 0 0.522 0.423 0.945 0.945 0.945 0.020 0 0.040-0.001 0.060-0.002l-0.003 0zM6.094 1.141h-4c-0.017-0.001-0.037-0.002-0.057-0.002-0.522 0-0.945 0.423-0.945 0.945 0 0.020 0.001 0.040 0.002 0.060l-0-0.003v4c-0.001 0.017-0.002 0.037-0.002 0.057 0 0.522 0.423 0.945 0.945 0.945 0.020 0 0.040-0.001 0.060-0.002l-0.003 0h4c0.017 0.001 0.037 0.002 0.057 0.002 0.522 0 0.945-0.423 0.945-0.945 0-0.020-0.001-0.040-0.002-0.060l0 0.003v-4c0.001-0.017 0.002-0.037 0.002-0.057 0-0.522-0.423-0.945-0.945-0.945-0.020 0-0.040 0.001-0.060 0.002l0.003-0zM6.094 9.141h-4c-0.017-0.001-0.037-0.002-0.057-0.002-0.522 0-0.945 0.423-0.945 0.945 0 0.020 0.001 0.040 0.002 0.060l-0-0.003v4c-0.001 0.017-0.002 0.037-0.002 0.057 0 0.522 0.423 0.945 0.945 0.945 0.020 0 0.040-0.001 0.060-0.002l-0.003 0h4c0.017 0.001 0.037 0.002 0.057 0.002 0.522 0 0.945-0.423 0.945-0.945 0-0.020-0.001-0.040-0.002-0.060l0 0.003v-4c0.001-0.017 0.002-0.037 0.002-0.057 0-0.522-0.423-0.945-0.945-0.945-0.020 0-0.040 0.001-0.060 0.002l0.003-0z"></path>
</svg>

<svg width="16" height="16" viewBox="0 0 16 16" fill="rgb(34, 34, 34)" xmlns="http://www.w3.org/2000/svg"><title>download-object</title><path d="M15.964 11.194L11.964 15.194L7.964 11.194H10.964V6.194H12.964V11.194H15.964ZM10.094 5.141H14.094C14.111 5.142 14.131 5.143 14.151 5.143C14.673 5.143 15.096 4.72 15.096 4.198C15.096 4.178 15.095 4.158 15.094 4.138V4.141V2.141C15.095 2.124 15.096 2.104 15.096 2.084C15.096 1.562 14.673 1.139 14.151 1.139C14.131 1.139 14.111 1.14 14.091 1.141H14.094H10.094C10.077 1.14 10.057 1.139 10.037 1.139C9.515 1.139 9.092 1.562 9.092 2.084C9.092 2.104 9.093 2.124 9.094 2.144V2.141V4.141C9.093 4.158 9.092 4.178 9.092 4.198C9.092 4.72 9.515 5.143 10.037 5.143C10.057 5.143 10.077 5.142 10.097 5.141H10.094ZM6.094 1.141H2.094C2.077 1.14 2.057 1.139 2.037 1.139C1.515 1.139 1.092 1.562 1.092 2.084C1.092 2.104 1.093 2.124 1.094 2.144V2.141V6.141C1.093 6.158 1.092 6.178 1.092 6.198C1.092 6.72 1.515 7.143 2.037 7.143C2.057 7.143 2.077 7.142 2.097 7.141H2.094H6.094C6.111 7.142 6.131 7.143 6.151 7.143C6.673 7.143 7.096 6.72 7.096 6.198C7.096 6.178 7.095 6.158 7.094 6.138V6.141V2.141C7.095 2.124 7.096 2.104 7.096 2.084C7.096 1.562 6.673 1.139 6.151 1.139C6.131 1.139 6.111 1.14 6.091 1.141H6.094ZM6.094 9.141H2.094C2.077 9.14 2.057 9.139 2.037 9.139C1.515 9.139 1.092 9.562 1.092 10.084C1.092 10.104 1.093 10.124 1.094 10.144V10.141V14.141C1.093 14.158 1.092 14.178 1.092 14.198C1.092 14.72 1.515 15.143 2.037 15.143C2.057 15.143 2.077 15.142 2.097 15.141H2.094H6.094C6.111 15.142 6.131 15.143 6.151 15.143C6.673 15.143 7.096 14.72 7.096 14.198C7.096 14.178 7.095 14.158 7.094 14.138V14.141V10.141C7.095 10.124 7.096 10.104 7.096 10.084C7.096 9.562 6.673 9.139 6.151 9.139C6.131 9.139 6.111 9.14 6.091 9.141H6.094Z" fill="rgb(34, 34, 34)" fill-opacity="1.00"/></svg>
